icons/analysis-overlay-24.svg

<?xml version="1.0" encoding="UTF-8"?><svg id="icons" xmlns="http://www.w3.org/2000/svg" viewBox="0 0 24 24"><path d="M18.75,14H6.5L2,22H23.25l-4.5-8Zm-11.66504,1h9.86786l-3.02704,1.64648-5.21094,1.40332-4.59149,2.21527,2.96161-5.26508Zm1.97559,3.98291l5.18164-1.38623c.03809-.01025,.0752-.0249,.11035-.04346l3.88672-2.11377c.04681-.02557,.08252-.06201,.11743-.09869l3.18335,5.65924H4.89624l4.16431-2.01709Zm-3.06055-9.48291c0-.38104-.09247-.73846-.24554-1.06201l4.06018-3.10358c.44531,.40936,1.034,.66559,1.68536,.66559,.75293,0,1.42096-.34137,1.87964-.86945l2.7395,1.64679c-.07019,.23029-.11914,.46973-.11914,.72266,0,1.37842,1.12109,2.5,2.5,2.5s2.5-1.12158,2.5-2.5-1.12109-2.5-2.5-2.5c-.76599,0-1.44379,.35345-1.90271,.8974l-2.72736-1.63947c.07721-.2406,.13007-.49207,.13007-.75793,0-1.37842-1.12109-2.5-2.5-2.5s-2.5,1.12158-2.5,2.5c0,.36621,.08356,.71167,.22565,1.02539l-4.07288,3.11334c-.44165-.39258-1.01654-.63873-1.65277-.63873-1.37891,0-2.5,1.12158-2.5,2.5s1.12109,2.5,2.5,2.5,2.5-1.12158,2.5-2.5Zm12.5-3.5c.82715,0,1.5,.67285,1.5,1.5s-.67285,1.5-1.5,1.5-1.5-.67285-1.5-1.5,.67285-1.5,1.5-1.5ZM11.5,2c.82715,0,1.5,.67285,1.5,1.5s-.67285,1.5-1.5,1.5-1.5-.67285-1.5-1.5,.67285-1.5,1.5-1.5ZM2,9.5c0-.82715,.67285-1.5,1.5-1.5s1.5,.67285,1.5,1.5-.67285,1.5-1.5,1.5-1.5-.67285-1.5-1.5Z"/><path fill="none" d="M0 0h24v24H0z"/></svg>

<svg xmlns="http://www.w3.org/2000/svg" viewBox="0 0 24 24"><path d="M18.75 14H6.5L2 22h21.25l-4.5-8zM7.085 15h9.868l-3.027 1.646-5.211 1.404-4.592 2.215L7.085 15zm1.976 3.983l5.181-1.386a.534.534 0 0 0 .11-.044l3.887-2.114a.488.488 0 0 0 .118-.098L21.54 21H4.896l4.165-2.017zM6 9.5c0-.381-.092-.738-.246-1.062l4.06-3.104C10.26 5.744 10.85 6 11.5 6c.753 0 1.421-.341 1.88-.87l2.74 1.647c-.071.23-.12.47-.12.723 0 1.378 1.121 2.5 2.5 2.5S21 8.878 21 7.5 19.879 5 18.5 5c-.766 0-1.444.353-1.903.897l-2.727-1.64c.077-.24.13-.491.13-.757C14 2.122 12.879 1 11.5 1S9 2.122 9 3.5c0 .366.084.712.226 1.025L5.153 7.64A2.48 2.48 0 0 0 3.5 7C2.121 7 1 8.122 1 9.5S2.121 12 3.5 12 6 10.878 6 9.5zM18.5 6c.827 0 1.5.673 1.5 1.5S19.327 9 18.5 9 17 8.327 17 7.5 17.673 6 18.5 6zm-7-4c.827 0 1.5.673 1.5 1.5S12.327 5 11.5 5 10 4.327 10 3.5 10.673 2 11.5 2zM2 9.5C2 8.673 2.673 8 3.5 8S5 8.673 5 9.5 4.327 11 3.5 11 2 10.327 2 9.5z"/><path fill="none" d="M0 0h24v24H0z"/></svg>
